X:182
U: ~ = !turn!
%%topmargin 3cm
T:Sean McGuire Reel
B:Traditional Irish Fiddle Tunes. Randy Miller and Jack Perron.
Z:Transcribed by Ralph Palmer
R:Reel
L:1/8
M:C|
K:EDor
e3 f Jg2 fe | dB (3.B.B.B dBAd | Beea bafe | dBAF BE E2 |
e3 f JPg2 fe | dB (3.B.B.B dBAd | Beef Jg2 fe | dBAF {/G}FE E2 ||
fd (3.d.d.d BdAd | fd ~d2 cEAc | fd (3.d.d.d BdAd | cEAc EAce |
fd (3.d.d.d BdAd | fded cdea | baba fafe | dBAF {/G}FE E2 |]
